src/lib/packages/icons/src/assets/line/file-text-star.svg

<svg width="24" height="24" viewBox="0 0 24 24" fill="none" xmlns="http://www.w3.org/2000/svg">
<path d="M21.6951 17.717C21.5611 17.3 21.208 17.002 20.771 16.94L19.2119 16.718L18.543 15.39C18.344 14.995 17.943 14.75 17.499 14.75C17.055 14.75 16.6541 14.995 16.4551 15.39L15.7859 16.718L14.2271 16.94C13.7901 17.002 13.437 17.3 13.303 17.717C13.169 18.132 13.2831 18.576 13.5991 18.877L14.7161 19.943L14.4629 21.391C14.3869 21.826 14.561 22.259 14.917 22.521C15.278 22.786 15.7509 22.825 16.1479 22.619L17.498 21.925L18.8491 22.62C19.0191 22.708 19.203 22.751 19.386 22.751C19.631 22.751 19.8731 22.674 20.0791 22.522C20.4351 22.26 20.61 21.827 20.533 21.393L20.28 19.944L21.397 18.878C21.715 18.576 21.8291 18.131 21.6951 17.717ZM19.103 18.995C18.831 19.256 18.707 19.633 18.771 20.005L18.9409 20.979L18.0249 20.508C17.8609 20.424 17.68 20.381 17.501 20.381C17.322 20.381 17.142 20.423 16.978 20.507L16.061 20.978L16.2319 20.003C16.2949 19.632 16.1709 19.255 15.8979 18.994L15.1899 18.318L16.1841 18.176C16.5521 18.124 16.872 17.896 17.042 17.562L17.501 16.651L17.9619 17.565C18.1309 17.895 18.4501 18.123 18.8181 18.175L19.812 18.317L19.103 18.995ZM11 20.25H6C4.423 20.25 3.75 19.577 3.75 18V6C3.75 4.423 4.423 3.75 6 3.75H11.25V6C11.25 8.418 12.582 9.75 15 9.75H17.25V12C17.25 12.414 17.586 12.75 18 12.75C18.414 12.75 18.75 12.414 18.75 12V9C18.75 8.801 18.671 8.61 18.53 8.47L12.53 2.47C12.389 2.329 12.199 2.25 12 2.25H6C3.582 2.25 2.25 3.582 2.25 6V18C2.25 20.418 3.582 21.75 6 21.75H11C11.414 21.75 11.75 21.414 11.75 21C11.75 20.586 11.414 20.25 11 20.25ZM12.75 6V4.811L16.189 8.25H15C13.423 8.25 12.75 7.577 12.75 6ZM14 11.25C14.414 11.25 14.75 11.586 14.75 12C14.75 12.414 14.414 12.75 14 12.75H7C6.586 12.75 6.25 12.414 6.25 12C6.25 11.586 6.586 11.25 7 11.25H14ZM11.75 16C11.75 16.414 11.414 16.75 11 16.75H7C6.586 16.75 6.25 16.414 6.25 16C6.25 15.586 6.586 15.25 7 15.25H11C11.414 15.25 11.75 15.586 11.75 16Z" fill="currentColor"/>
</svg>

<svg xmlns="http://www.w3.org/2000/svg" width="24" height="24" fill="none"><path fill="currentColor" d="M21.695 17.717a1.129 1.129 0 0 0-.924-.777l-1.56-.222-.668-1.328c-.199-.395-.6-.64-1.044-.64-.444 0-.845.245-1.044.64l-.67 1.328-1.558.222c-.437.062-.79.36-.924.777-.134.415-.02.859.296 1.16l1.117 1.066-.253 1.448a1.15 1.15 0 0 0 .454 1.13c.361.265.834.304 1.23.098l1.351-.694 1.351.695a1.166 1.166 0 0 0 1.23-.098c.356-.262.531-.695.454-1.129l-.253-1.449 1.117-1.066c.318-.302.432-.747.298-1.161Zm-2.592 1.278a1.131 1.131 0 0 0-.332 1.01l.17.974-.916-.471a1.153 1.153 0 0 0-1.047-.001l-.917.471.17-.975a1.131 1.131 0 0 0-.333-1.009l-.708-.676.994-.142c.368-.052.688-.28.858-.614l.459-.911.46.914c.17.33.49.558.857.61l.994.142-.709.678ZM11 20.25H6c-1.577 0-2.25-.673-2.25-2.25V6c0-1.577.673-2.25 2.25-2.25h5.25V6c0 2.418 1.332 3.75 3.75 3.75h2.25V12a.75.75 0 0 0 1.5 0V9a.747.747 0 0 0-.22-.53l-6-6a.749.749 0 0 0-.53-.22H6C3.582 2.25 2.25 3.582 2.25 6v12c0 2.418 1.332 3.75 3.75 3.75h5a.75.75 0 0 0 0-1.5ZM12.75 6V4.811l3.439 3.439H15c-1.577 0-2.25-.673-2.25-2.25ZM14 11.25a.75.75 0 0 1 0 1.5H7a.75.75 0 0 1 0-1.5h7ZM11.75 16a.75.75 0 0 1-.75.75H7a.75.75 0 0 1 0-1.5h4a.75.75 0 0 1 .75.75Z"/></svg>
